X:1
T:The Ghost
R:three-two
M:3/2
L:1/8
K:Dmaj
"Em"E3 B B/2c/2B "D"A3 B d2| "Em"E3 E e2 "A"c3 BAB|"Em"E3 B B/2c/2B "D"A3 B d2| "Em"e3 B d2 "A"c3 B AB|
"Em"E3 B B/2c/2B "D"A3 B d2| "Em"E3 E e2 "A"c3 B A2| "G"B3 G E2 "A"A3 d c2 |"G"B3 A E2 "A"A6:|
"B"B3 g f2 "Em"e6| "A"a3 e g2 "D"f3 e d2 | "B#"e3 =c A2 "D"d3 g f2| "B#"e3 =c A2 "D"d6|
"B"B3 g f2 "Em"e6| "A"a3 e g2 "D"f3 e d2 | "B#"e3 =c A2 "D"d3 g f2| "B#"e3 =c A "D"B3 A B2||

original without chords
